X:1
T:MacAllistrum's March
R:march
D:Chieftain's- Celtic Harp
Z:MichaelHogan
S:AIKUNTZ@aol.com scots-l 2001-11-21
M:6/8
L:1/8
K:D
|:Fddfee|fdd dBA|Fdd fee|fdd B2A:|
|:~F2EFDD|Fdd dBA|~F2E FDD|Fdd B2A:|
|:d2fe2f|ded dBA|d2f e2f|ded B2A:|
|~B2AB2E|~B2A BAF|(3Bcd B c2F|(3Bcd B cAF|
~B2A B2E|~B2A BAF|BdB c2F|Bdc BAG||
